svgs/sharp-thin/castle.svg

<svg xmlns="http://www.w3.org/2000/svg" viewBox="0 0 640 512"><!--! Font Awesome Pro 6.6.0 by @fontawesome - https://fontawesome.com License - https://fontawesome.com/license (Commercial License) Copyright 2024 Fonticons, Inc. --><path d="M128 0l8 0 64 0 8 0 0 8 0 64 24 0 0-64 0-8 8 0 56 0 8 0 0 8 0 64 32 0 0-64 0-8 8 0 56 0 8 0 0 8 0 64 24 0 0-64 0-8 8 0 64 0 8 0 0 8 0 216 48 0 0-56 0-8 8 0 64 0 8 0 0 8 0 336 0 8-8 0L8 512l-8 0 0-8L0 168l0-8 8 0 64 0 8 0 0 8 0 56 48 0L128 8l0-8zm16 240l-8 0-8 0-56 0-8 0 0-8 0-56-48 0 0 320 224 0 0-104c0-44.2 35.8-80 80-80s80 35.8 80 80l0 104 224 0 0-320-48 0 0 56 0 8-8 0-56 0-8 0-8 0-352 0zm352-16l0-208-48 0 0 64 0 8-8 0-40 0-8 0 0-8 0-64-40 0 0 64 0 8-8 0-48 0-8 0 0-8 0-64-40 0 0 64 0 8-8 0-40 0-8 0 0-8 0-64-48 0 0 208 352 0zM384 392c0-35.3-28.7-64-64-64s-64 28.7-64 64l0 104 128 0 0-104z"/></svg>

<svg xmlns="http://www.w3.org/2000/svg" viewBox="0 0 640 512"><!--! Font Awesome Pro 6.5.2 by @fontawesome - https://fontawesome.com License - https://fontawesome.com/license (Commercial License) Copyright 2024 Fonticons, Inc. --><path d="M128 0h8 64 8V8 72h24V8 0h8 56 8V8 72h32V8 0h8 56 8V8 72h24V8 0h8 64 8V8 224h48V168v-8h8 64 8v8V504v8h-8H8 0v-8V168v-8H8 72h8v8 56h48V8 0zm16 240h-8-8H72 64v-8V176H16V496H240V392c0-44.2 35.8-80 80-80s80 35.8 80 80V496H624V176H576v56 8h-8H512h-8-8H144zm352-16V16H448V80v8h-8H400h-8V80 16H352V80v8h-8H296h-8V80 16H248V80v8h-8H200h-8V80 16H144V224H496zM384 392c0-35.3-28.7-64-64-64s-64 28.7-64 64V496H384V392z"/></svg>
